X:11827
T:Nin como nin vivo
C:Tradicional
S:Música Tradicional Asturiana, (C) Tello & Tito. Asturies, 2001.
S:http://pagina.de/MusTradAst <telloytito@asturies.org>
A:Asturies
Z:Asturias, canciones
M:3/8
L:1/8
Q:3/8=70
K:C
|A2 B|c2 A|B2 c|(B>A^G)|A2 B|G2 E|D2 E|E2 E|
A2 B|c2 A|B2 c|(B>A^G)|A2 B|G2 E|D2 E|EEE|
AAB|GGG|EDF|E2 E|AAB|GGF|EDF|E2 z||


